X:1
T:The Grand Conversation of Napoleon
M:4/4
L:1/8
K:F
 c| c2 c3/2 c/2 A2 c3/2 c/2| A2 F3/2 F/2 G3/2 F/2 _E3/2 F/2| FF FG A/2B/2 c2 F|\
 GG FF F3| c| c/2 c3/2 c3/2 B/2 A3/2 B/2 c c/2c/2| A/2 A3/2 F3/2 F/2 GF _EF|\
 AA GB AB c3/2 F/2| GG FF| F3 G| F3/2 G/2 AB c3/2 d/2 _e f/2f/2| f3/2 _e/2 dc cA F z/2 F/2|\
 FG A/2 B3/2 c/2 d3/2 _ee| f3/2 B/2| c3/2 d/2 c3d/2-_e/2| f3/2 _e/2 dB ed c z/2 F/2|\
 A/2 A3/2 F3/2 A/2G/2 F3/2 E z/2 F/2| A2 A3/2 G/2 A3/2 B/2 c3/2 F/2|\
 G2 FF F3||
